packages/web-icons/svgs/double_1.svg

<svg viewBox="0 0 50 48" xmlns="http://www.w3.org/2000/svg" class="ridi_icon"><path d="M47.4 27.1c.7-.8 1.7-1.8 1.7-3.1s-.9-2.3-1.7-3.1c-.3-.4-.8-.9-.9-1.1-.1-.3.2-1 .4-1.5.4-1.1.8-2.3.3-3.4-.5-1.2-1.7-1.7-2.7-2.2-.5-.2-1.1-.5-1.3-.7-.2-.2-.2-1-.2-1.5 0-1.3-.1-2.6-1-3.5-.9-.9-2.2-1-3.3-1-.5 0-1.3-.1-1.5-.2-.2-.2-.5-.8-.7-1.3-.5-1-1-2.2-2.2-2.7-.3-.1-.7-.2-1.1-.2-.8 0-1.6.3-2.3.6-.5.2-1.1.4-1.4.4h-.1c-.4-.1-.9-.6-1.3-.9C27.3.9 26.3 0 25 0s-2.3.9-3.1 1.7c-.4.3-.9.8-1.2.8h-.1c-.3 0-.9-.2-1.4-.4-.7-.2-1.5-.5-2.3-.5-.4 0-.8.1-1.1.2-1.2.5-1.7 1.7-2.2 2.7-.2.4-.6 1.1-.8 1.3-.2.1-.9.2-1.5.2-1.1 0-2.4.1-3.3 1-.9.9-1 2.2-1 3.3 0 .5-.1 1.3-.2 1.5-.2.2-.8.5-1.3.7-1 .5-2.2 1-2.7 2.2-.5 1.3-.1 2.5.3 3.6.2.5.4 1.2.4 1.5-.1.2-.6.8-.9 1.1-.7.8-1.7 1.8-1.7 3.1s.9 2.3 1.7 3.1c.3.4.8.9.9 1.1.1.3-.2 1-.4 1.5-.4 1.1-.8 2.3-.3 3.4.5 1.2 1.7 1.7 2.7 2.2.5.2 1.1.5 1.3.7.2.2.2 1 .2 1.5.1 1.1.1 2.4 1 3.3.9.9 2.2 1 3.3 1 .5 0 1.3.1 1.5.2.2.4.6 1 .8 1.5.5 1 1 2.2 2.2 2.7.3.1.7.2 1.1.2.8 0 1.6-.3 2.3-.6.5-.2 1.1-.4 1.4-.4h.1c.2.1.8.6 1.1.9.8.7 1.8 1.7 3.1 1.7s2.3-.9 3.1-1.7c.4-.3.9-.8 1.1-.9h.1c.3 0 .9.2 1.4.4.7.3 1.5.6 2.3.6.4 0 .8-.1 1.1-.2 1.2-.5 1.7-1.7 2.2-2.7.2-.5.5-1.1.7-1.3.2-.2 1-.2 1.5-.2 1.1-.1 2.4-.1 3.3-1 .9-.9 1-2.2 1-3.3 0-.5.1-1.3.2-1.5.2-.2.8-.5 1.3-.7 1-.5 2.2-1 2.7-2.2.5-1.2.1-2.4-.3-3.4-.2-.5-.4-1.2-.4-1.5.3-.4.8-.9 1.2-1.3zm-28 4.4l-1.9-3.3c-.2-.2-.3-.7-.3-.7h-.1s-.2.5-.3.7l-1.9 3.3h-3l3.6-5.4-3.5-5.3h3.1l1.7 2.9.4.6h.1l.4-.6 1.7-2.9h3.1L19 26.1l3.6 5.4h-3.2zm18.2 1.3H25.7c-.1-.5-.2-1.2-.2-1.8 0-6.6 7.7-7.8 7.7-10.3 0-1.3-1-1.8-1.9-1.8-1.7 0-2.7 1.9-2.7 1.9l-3.3-2.2s1.7-3.9 6.3-3.9c2.9 0 6.1 1.7 6.1 5.6 0 5.6-7.2 6.7-7.3 9.1h7.1l.1 3.4z"/></svg>

<?xml version="1.0" encoding="UTF-8"?>
<svg width="50px" height="48px" viewBox="0 0 50 48" version="1.1" xmlns="http://www.w3.org/2000/svg">
  <!-- Generator: Sketch 41.2 (35397) - http://www.bohemiancoding.com/sketch -->
  <title>double_1</title>
  <desc>Created with Sketch.</desc>
  <defs></defs>
  <g id="Page-1" stroke="none" stroke-width="1" fill="none" fill-rule="evenodd">
    <g id="double_1" fill="#444444">
      <g id="레이어_1">
        <path d="M47.4,27.1 C48.1,26.3 49.1,25.3 49.1,24 C49.1,22.7 48.2,21.7 47.4,20.9 C47.1,20.5 46.6,20 46.5,19.8 C46.4,19.5 46.7,18.8 46.9,18.3 C47.3,17.2 47.7,16 47.2,14.9 C46.7,13.7 45.5,13.2 44.5,12.7 C44,12.5 43.4,12.2 43.2,12 C43,11.8 43,11 43,10.5 C43,9.2 42.9,7.9 42,7 C41.1,6.1 39.8,6 38.7,6 C38.2,6 37.4,5.9 37.2,5.8 C37,5.6 36.7,5 36.5,4.5 C36,3.5 35.5,2.3 34.3,1.8 C34,1.7 33.6,1.6 33.2,1.6 C32.4,1.6 31.6,1.9 30.9,2.2 C30.4,2.4 29.8,2.6 29.5,2.6 L29.4,2.6 C29,2.5 28.5,2 28.1,1.7 C27.3,0.9 26.3,0 25,0 C23.7,0 22.7,0.9 21.9,1.7 C21.5,2 21,2.5 20.7,2.5 C20.7,2.5 20.7,2.5 20.6,2.5 C20.3,2.5 19.7,2.3 19.2,2.1 C18.5,1.9 17.7,1.6 16.9,1.6 C16.5,1.6 16.1,1.7 15.8,1.8 C14.6,2.3 14.1,3.5 13.6,4.5 C13.4,4.9 13,5.6 12.8,5.8 C12.6,5.9 11.9,6 11.3,6 C10.2,6 8.9,6.1 8,7 C7.1,7.9 7,9.2 7,10.3 C7,10.8 6.9,11.6 6.8,11.8 C6.6,12 6,12.3 5.5,12.5 C4.5,13 3.3,13.5 2.8,14.7 C2.3,16 2.7,17.2 3.1,18.3 C3.3,18.8 3.5,19.5 3.5,19.8 C3.4,20 2.9,20.6 2.6,20.9 C1.9,21.7 0.9,22.7 0.9,24 C0.9,25.3 1.8,26.3 2.6,27.1 C2.9,27.5 3.4,28 3.5,28.2 C3.6,28.5 3.3,29.2 3.1,29.7 C2.7,30.8 2.3,32 2.8,33.1 C3.3,34.3 4.5,34.8 5.5,35.3 C6,35.5 6.6,35.8 6.8,36 C7,36.2 7,37 7,37.5 C7.1,38.6 7.1,39.9 8,40.8 C8.9,41.7 10.2,41.8 11.3,41.8 C11.8,41.8 12.6,41.9 12.8,42 C13,42.4 13.4,43 13.6,43.5 C14.1,44.5 14.6,45.7 15.8,46.2 C16.1,46.3 16.5,46.4 16.9,46.4 C17.7,46.4 18.5,46.1 19.2,45.8 C19.7,45.6 20.3,45.4 20.6,45.4 L20.7,45.4 C20.9,45.5 21.5,46 21.8,46.3 C22.6,47 23.6,48 24.9,48 C26.2,48 27.2,47.1 28,46.3 C28.4,46 28.9,45.5 29.1,45.4 L29.2,45.4 C29.5,45.4 30.1,45.6 30.6,45.8 C31.3,46.1 32.1,46.4 32.9,46.4 C33.3,46.4 33.7,46.3 34,46.2 C35.2,45.7 35.7,44.5 36.2,43.5 C36.4,43 36.7,42.4 36.9,42.2 C37.1,42 37.9,42 38.4,42 C39.5,41.9 40.8,41.9 41.7,41 C42.6,40.1 42.7,38.8 42.7,37.7 C42.7,37.2 42.8,36.4 42.9,36.2 C43.1,36 43.7,35.7 44.2,35.5 C45.2,35 46.4,34.5 46.9,33.3 C47.4,32.1 47,30.9 46.6,29.9 C46.4,29.4 46.2,28.7 46.2,28.4 C46.5,28 47,27.5 47.4,27.1 Z M19.4,31.5 L17.5,28.2 C17.3,28 17.2,27.5 17.2,27.5 L17.1,27.5 C17.1,27.5 16.9,28 16.8,28.2 L14.9,31.5 L11.9,31.5 L15.5,26.1 L12,20.8 L15.1,20.8 L16.8,23.7 C17,24 17.2,24.3 17.2,24.3 L17.3,24.3 L17.7,23.7 L19.4,20.8 L22.5,20.8 L19,26.1 L22.6,31.5 L19.4,31.5 L19.4,31.5 Z M37.6,32.8 L25.7,32.8 C25.6,32.3 25.5,31.6 25.5,31 C25.5,24.4 33.2,23.2 33.2,20.7 C33.2,19.4 32.2,18.9 31.3,18.9 C29.6,18.9 28.6,20.8 28.6,20.8 L25.3,18.6 C25.3,18.6 27,14.7 31.6,14.7 C34.5,14.7 37.7,16.4 37.7,20.3 C37.7,25.9 30.5,27 30.4,29.4 L37.5,29.4 L37.6,32.8 L37.6,32.8 Z" id="Shape"></path>
      </g>
    </g>
  </g>
</svg>
